X:1
T:Evan, CM
T:Evan, CM
T:William Havergal, 1847; arr. Lowell Mason, 1850
T:Public Domain, Courtesy of the Cyber Hymnal™
C:William Havergal, 1847; arr. Lowell Mason, 1850
Z:Public Domain,
Z:Courtesy of the Cyber Hymnal™
%%score 1 ( 2 3 )
L:1/8
Q:1/4=140
M:3/2
K:Ab
V:1 treble 
V:2 bass 
V:3 bass 
V:1
 [CE]4 | [CE]2 [CA]2 [Ec]4 [DB]4 | [CA]2 [DF]2 [CE]4 [CE]4 | [CE]2 [CA]2 [Cc]4 [CA]4 | %4
 [EB]8 [Ed]4 | [Ec]2 [DB]2 [CA]4 [EB]4 | [Ec]2 [EA]2 [DF]4 [B,E]4 | [CE]2 [CA]2 [Ec]4 [DB]4 | %8
 [CA]8 |] %9
V:2
 [A,,A,]4 | [A,,A,]2 [A,,A,]2 [A,,A,]4 [E,G,]4 | [F,A,]2 [D,A,]2 [A,,A,]4 [A,,A,]4 | %3
 [A,,A,]2 A,2 [F,A,]4 [F,A,]4 | [E,G,]8 [G,B,]4 | A,2 [E,G,]2 [F,A,]4 [E,G,]4 | %6
 A,2 [C,A,]2 [D,A,]4 [E,G,]4 | [A,,A,]2 [F,A,]2 [E,A,]4 [E,G,]4 | [A,,A,]8 |] %9
V:3
 x4 | x12 | x12 | x2 A,2 x8 | x12 | A,2 x10 | A,2 x10 | x12 | x8 |] %9

